X:223
T:O'Connell's Trip to Parliament 1 (reel) 
B:CRE2.217i (Turas Ui Chonaill go dti an Pharlaimint 1)
F:file ID: cre.2/223oconn_t1
M:C
R:reel
Q:180
K:D
dcAF G2FG|Adde fded|dcAF G2FG|(3AGF (3GFE FDD2:|
fffa gfed|cdef g2fe|defg a2ge|a2ge fdd2:|

%%%

